static/bg.svg

<svg xmlns="http://www.w3.org/2000/svg" version="1.1" xmlns:xlink="http://www.w3.org/1999/xlink" xmlns:svgjs="http://svgjs.dev/svgjs" viewBox="0 0 1920 1080"><rect width="1920" height="1080" fill="#320070"></rect><g transform="matrix(7.04171909509728e-17,1.15,-1.15,7.04171909509728e-17,1543.9064712524414,-521.3424419403075)"><path d="M0,-1080C10.568711476073966,-991.7289696417965,66.67051769218155,-719.0814054697836,63.4122688564438,-550.3738178507789C60.15402002070606,-381.6662302317742,3.383456991840756,-202.47274173543,-19.54949301442649,-67.75447428597164C-42.48244302069374,66.96379316348671,-73.89429830463055,121.58804971249654,-74.18543118115966,257.93578684597117C-74.47656405768876,394.2835239794458,-36.45436547526861,592.371828446245,-21.296290273601088,750.3319485148761C-6.138215071933564,908.2920685835072,10.630135331906526,1059.4263679711958,16.76302002884549,1205.6965072577582C22.89590472578445,1351.9666465443206,18.29485457950693,1468.902202110544,15.50101790803268,1627.952784234251C12.707181236558432,1787.0033663579582,2.5835029846721134,2071.325464039042,0,2160L 1920 2160 L 1920 -1080 Z" fill="url(&quot;#SvgjsLinearGradient1192&quot;)"></path><path d="M384,-1080C377.5072336010177,-1011.7920311767263,351.2213337345198,-811.4573832426635,345.04340160610616,-670.7521870603578C338.8654694776925,-530.046990878052,332.6169832778766,-384.7135236140766,346.93240722951816,-235.76882290616598C361.2478311811597,-86.82412219825531,437.5415348989218,68.68672113764424,430.9359453159554,222.91601718710632C424.330355732989,377.1453132365684,327.4860025962731,509.40758679332725,307.2988697317198,689.6069533906065C287.1117368671664,869.8063199878857,285.0709036980538,1149.5553522797368,309.8131481286355,1304.1122167707817C334.5553925592171,1458.6690812618267,443.38786100331566,1474.3001764653404,455.75233631520973,1616.9481403368768C468.1168116271038,1759.5961042084132,395.9587227192016,2069.4913567228127,384,2160L 1920 2160 L 1920 -1080 Z" fill="url(&quot;#SvgjsLinearGradient1193&quot;)"></path><path d="M768,-1080C776.5499658849784,-1017.0402496766184,831.4851520761506,-860.3262111808228,819.2997953098705,-702.2414980597104C807.1144385435905,-544.1567849385979,695.9321204747285,-304.4064428350256,694.8878594023195,-131.49172127332494C693.8435983299104,41.423000288375704,786.3614273174027,173.96203473104785,813.0342288754161,335.24683131049363C839.7070304334296,496.5316278899394,860.6461496885116,697.0673875822007,854.9246687504002,836.2170582033498C849.2031878122888,975.3667288244989,801.6063744573104,1016.4419907728474,778.7053432467476,1170.144855037388C755.8043120361848,1323.8477193019287,719.3027053614813,1593.458386296825,717.5184814870235,1758.4342437905937C715.7342576125656,1923.4101012843623,759.5864135811705,2093.072373965099,768,2160L 1920 2160 L 1920 -1080 Z" fill="url(&quot;#SvgjsLinearGradient1194&quot;)"></path><path d="M1152,-1080C1160.2355607904124,-972.1913003318748,1196.428764709957,-654.5145450826546,1201.4133647424744,-433.14780199124914C1206.3979647749918,-211.78105889984363,1194.30653101721,29.31819786244253,1181.9076001951041,248.20045854843306C1169.5086693729982,467.0827192344236,1141.3696674209182,669.025326245997,1127.0197798098384,880.145762124694C1112.6698921987586,1091.2661980033909,1091.644904496932,1301.6140341747307,1095.8082745286256,1514.923073820615C1099.9716445603192,1728.2321134664992,1142.6347124214376,2052.4871789701024,1152,2160L 1920 2160 L 1920 -1080 Z" fill="url(&quot;#SvgjsLinearGradient1195&quot;)"></path><path d="M1536,-1080C1530.0379586704635,-994.2540627375512,1504.863153308653,-736.2351200106629,1500.2277520227804,-565.5243764253073C1495.5923507369077,-394.81363283995177,1495.02479985013,-241.3998906079766,1508.1875922847648,-55.735538487866876C1521.3503847193997,129.92881363224285,1580.6737217941286,353.1468229545452,1579.2045066305902,548.4617362953511C1577.7352914670519,743.776649636157,1513.6702026400023,947.3559628508445,1499.3723013035349,1116.1539415569682C1485.0743999670674,1284.9519202630918,1487.3124821623742,1387.2752654582546,1493.4170986117851,1561.2496085320931C1499.5217150611961,1735.2239516059317,1528.9028497686309,2060.2082680886824,1536,2160L 1920 2160 L 1920 -1080 Z" fill="url(&quot;#SvgjsLinearGradient1196&quot;)"></path></g><defs><linearGradient x1="0.1" y1="0" x2="0" y2="1" id="SvgjsLinearGradient1192"><stop stop-color="#320070" offset="0"></stop><stop stop-color="#1f0070" offset="0"></stop></linearGradient><linearGradient x1="0.1" y1="0" x2="0" y2="1" id="SvgjsLinearGradient1193"><stop stop-color="#2d0065" offset="0"></stop><stop stop-color="#1c0065" offset="0.2"></stop></linearGradient><linearGradient x1="0.1" y1="0" x2="0" y2="1" id="SvgjsLinearGradient1194"><stop stop-color="#28005a" offset="0"></stop><stop stop-color="#19005a" offset="0.4"></stop></linearGradient><linearGradient x1="0.1" y1="0" x2="0" y2="1" id="SvgjsLinearGradient1195"><stop stop-color="#23004f" offset="0"></stop><stop stop-color="#16004f" offset="0.6"></stop></linearGradient><linearGradient x1="0.1" y1="0" x2="0" y2="1" id="SvgjsLinearGradient1196"><stop stop-color="#1e0044" offset="0"></stop><stop stop-color="#130044" offset="0.8"></stop></linearGradient></defs></svg>

<svg xmlns="http://www.w3.org/2000/svg" viewBox="0 0 1920 1080"><path fill="#320070" d="M0 0h1920v1080H0z"/><path d="M0-1080c10.569 88.271 66.67 360.919 63.412 529.626-3.258 168.708-60.029 347.901-82.961 482.62-22.933 134.718-54.345 189.342-54.636 325.69-.292 136.348 37.73 334.436 52.889 492.396 15.158 157.96 31.926 309.094 38.059 455.365 6.133 146.27 1.532 263.205-1.262 422.256C12.707 1787.003 2.584 2071.325 0 2160h1920v-3240Z" fill="url(&quot;#a&quot;)" transform="rotate(90 1032.624 511.282) scale(1.15)"/><path d="M384-1080c-6.493 68.208-32.779 268.543-38.957 409.248-6.178 140.705-12.426 286.038 1.89 434.983 14.315 148.945 90.609 304.456 84.003 458.685-6.606 154.23-103.45 286.492-123.637 466.691-20.187 180.2-22.228 459.948 2.514 614.505 24.742 154.557 133.575 170.188 145.94 312.836C468.116 1759.596 395.958 2069.491 384 2160h1536v-3240Z" fill="url(&quot;#b&quot;)" transform="rotate(90 1032.624 511.282) scale(1.15)"/><path d="M768-1080c8.55 62.96 63.485 219.674 51.3 377.759-12.186 158.084-123.368 397.835-124.412 570.75-1.044 172.914 91.473 305.453 118.146 466.738 26.673 161.285 47.612 361.82 41.89 500.97-5.72 139.15-53.318 180.225-76.219 333.928-22.9 153.703-59.402 423.313-61.187 588.29C715.734 1923.41 759.586 2093.071 768 2160h1152v-3240Z" fill="url(&quot;#c&quot;)" transform="rotate(90 1032.624 511.282) scale(1.15)"/><path d="M1152-1080c8.236 107.809 44.429 425.485 49.413 646.852 4.985 221.367-7.106 462.466-19.505 681.348-12.4 218.883-40.538 420.825-54.888 631.946-14.35 211.12-35.375 421.468-31.212 634.777 4.164 213.31 46.827 537.564 56.192 645.077h768v-3240Z" fill="url(&quot;#d&quot;)" transform="rotate(90 1032.624 511.282) scale(1.15)"/><path d="M1536-1080c-5.962 85.746-31.137 343.765-35.772 514.476-4.636 170.71-5.203 324.124 7.96 509.788 13.162 185.665 72.486 408.883 71.017 604.198-1.47 195.315-65.535 398.894-79.833 567.692-14.298 168.798-12.06 271.121-5.955 445.096 6.105 173.974 35.486 498.958 42.583 598.75h384v-3240Z" fill="url(&quot;#e&quot;)" transform="rotate(90 1032.624 511.282) scale(1.15)"/><defs><linearGradient x1=".1" y1="0" x2="0" y2="1" id="a"><stop stop-color="#320070" offset="0"/><stop stop-color="#1f0070" offset="0"/></linearGradient><linearGradient x1=".1" y1="0" x2="0" y2="1" id="b"><stop stop-color="#2d0065" offset="0"/><stop stop-color="#1c0065" offset=".2"/></linearGradient><linearGradient x1=".1" y1="0" x2="0" y2="1" id="c"><stop stop-color="#28005a" offset="0"/><stop stop-color="#19005a" offset=".4"/></linearGradient><linearGradient x1=".1" y1="0" x2="0" y2="1" id="d"><stop stop-color="#23004f" offset="0"/><stop stop-color="#16004f" offset=".6"/></linearGradient><linearGradient x1=".1" y1="0" x2="0" y2="1" id="e"><stop stop-color="#1e0044" offset="0"/><stop stop-color="#130044" offset=".8"/></linearGradient></defs></svg>
